assets/img/WhosOnFirstComponent-DE.svg

<svg viewBox="0 0 464 464" xmlns="http://www.w3.org/2000/svg" fill-rule="evenodd" clip-rule="evenodd" stroke-linejoin="round" stroke-miterlimit="10"><g transform="scale(1.33333)"><clipPath id="a"><path d="M0 0h348v348H0z"/></clipPath><g clip-path="url(#a)"><path d="M0 0h348v348H0V0z" fill="none"/><path d="M-6 0h348v347.969H-6V0z" fill="#fff" fill-rule="nonzero"/><path d="M5.079 5.776h336.913v337.669H5.079V5.776z" fill="none"/><path d="M5.079 5.776h336.913v337.669H5.079V5.776z" fill="none" stroke="#000" stroke-width="2"/><path d="M282.734 40.554c0-8.376 6.966-15.165 15.559-15.165 4.127 0 8.085 1.597 11.002 4.441 2.918 2.844 4.558 6.702 4.558 10.724 0 8.376-6.966 15.165-15.56 15.165-8.593 0-15.559-6.789-15.559-15.165z" fill="#fff" fill-rule="nonzero"/><path d="M282.734 40.554c0-8.376 6.966-15.165 15.559-15.165 4.127 0 8.085 1.597 11.002 4.441 2.918 2.844 4.558 6.702 4.558 10.724 0 8.376-6.966 15.165-15.56 15.165-8.593 0-15.559-6.789-15.559-15.165z" fill="none" stroke="#000" stroke-width="2"/><path d="M34.772 25.39h232.409v67.559H34.772V25.39z" fill-rule="nonzero"/><path d="M34.772 25.39h232.409v67.559H34.772V25.39z" fill="none" stroke="#000" stroke-width="2"/><path d="M34.772 202.318h106.645v44.819H34.772v-44.819z" fill="none"/><path d="M34.772 202.318h106.645v44.819H34.772v-44.819z" fill="none" stroke="#000"/><path d="M55.185 235.429v-17.375h3.672v1.375h-2.016v14.609h2.016v1.391h-3.672zm13.992-3.782v-12h-4.469v-1.593h10.766v1.593h-4.5v12h-1.797zm7.974 0v-13.593h9.844v1.593h-8.047v4.172h7.531v1.594h-7.531v4.625h8.359v1.609H77.151zm11.022 0l5.265-7.093-4.64-6.5h2.14l2.469 3.484c.521.719.885 1.276 1.094 1.672.302-.5.661-1.016 1.078-1.547l2.734-3.609h1.969l-4.781 6.406 5.14 7.187h-2.218l-3.422-4.859a11.5 11.5 0 0 1-.594-.906c-.302.5-.521.844-.656 1.031l-3.407 4.734h-2.171zm17.287 0v-12h-4.469v-1.593h10.766v1.593h-4.5v12h-1.797zm15.704 3.782h-3.687v-1.391h2.015v-14.609h-2.015v-1.375h3.687v17.375z" fill-rule="nonzero"/><path d="M34.772 125.226h106.645v44.819H34.772v-44.819z" fill="none"/><path d="M34.772 125.226h106.645v44.819H34.772v-44.819z" fill="none" stroke="#000"/><path d="M55.185 158.337v-17.375h3.672v1.375h-2.016v14.609h2.016v1.391h-3.672zm13.992-3.781v-12h-4.469v-1.594h10.766v1.594h-4.5v12h-1.797zm7.974 0v-13.594h9.844v1.594h-8.047v4.172h7.531v1.593h-7.531v4.625h8.359v1.61H77.151zm11.022 0l5.265-7.094-4.64-6.5h2.14l2.469 3.484c.521.719.885 1.276 1.094 1.672.302-.5.661-1.015 1.078-1.547l2.734-3.609h1.969l-4.781 6.406 5.14 7.188h-2.218l-3.422-4.86a11.14 11.14 0 0 1-.594-.906c-.302.5-.521.844-.656 1.031l-3.407 4.735h-2.171zm17.287 0v-12h-4.469v-1.594h10.766v1.594h-4.5v12h-1.797zm15.704 3.781h-3.687v-1.391h2.015v-14.609h-2.015v-1.375h3.687v17.375z" fill-rule="nonzero"/><path d="M34.772 270.604h106.645v44.819H34.772v-44.819z" fill="none"/><path d="M34.772 270.604h106.645v44.819H34.772v-44.819z" fill="none" stroke="#000"/><path d="M55.185 303.715V286.34h3.672v1.375h-2.016v14.609h2.016v1.391h-3.672zm13.992-3.782v-12h-4.469v-1.593h10.766v1.593h-4.5v12h-1.797zm7.974 0V286.34h9.844v1.593h-8.047v4.172h7.531v1.594h-7.531v4.625h8.359v1.609H77.151zm11.022 0l5.265-7.093-4.64-6.5h2.14l2.469 3.484c.521.719.885 1.276 1.094 1.672.302-.5.661-1.016 1.078-1.547l2.734-3.609h1.969l-4.781 6.406 5.14 7.187h-2.218l-3.422-4.859a11.5 11.5 0 0 1-.594-.906c-.302.5-.521.844-.656 1.031l-3.407 4.734h-2.171zm17.287 0v-12h-4.469v-1.593h10.766v1.593h-4.5v12h-1.797zm15.704 3.782h-3.687v-1.391h2.015v-14.609h-2.015v-1.375h3.687v17.375z" fill-rule="nonzero"/><path d="M157.407 202.318h106.645v44.819H157.407v-44.819z" fill="none"/><path d="M157.407 202.318h106.645v44.819H157.407v-44.819z" fill="none" stroke="#000"/><path d="M177.82 235.429v-17.375h3.672v1.375h-2.015v14.609h2.015v1.391h-3.672zm13.992-3.782v-12h-4.469v-1.593h10.766v1.593h-4.5v12h-1.797zm7.974 0v-13.593h9.844v1.593h-8.047v4.172h7.531v1.594h-7.531v4.625h8.359v1.609h-10.156zm11.022 0l5.265-7.093-4.64-6.5h2.14l2.469 3.484c.521.719.886 1.276 1.094 1.672.302-.5.661-1.016 1.078-1.547l2.734-3.609h1.969l-4.781 6.406 5.141 7.187h-2.219l-3.422-4.859a11.5 11.5 0 0 1-.594-.906c-.302.5-.521.844-.656 1.031l-3.406 4.734h-2.172zm17.287 0v-12h-4.469v-1.593h10.766v1.593h-4.5v12h-1.797zm15.704 3.782h-3.687v-1.391h2.016v-14.609h-2.016v-1.375h3.687v17.375z" fill-rule="nonzero"/><path d="M157.407 125.226h106.645v44.819H157.407v-44.819z" fill="none"/><path d="M157.407 125.226h106.645v44.819H157.407v-44.819z" fill="none" stroke="#000"/><path d="M177.82 158.337v-17.375h3.672v1.375h-2.015v14.609h2.015v1.391h-3.672zm13.992-3.781v-12h-4.469v-1.594h10.766v1.594h-4.5v12h-1.797zm7.974 0v-13.594h9.844v1.594h-8.047v4.172h7.531v1.593h-7.531v4.625h8.359v1.61h-10.156zm11.022 0l5.265-7.094-4.64-6.5h2.14l2.469 3.484c.521.719.886 1.276 1.094 1.672.302-.5.661-1.015 1.078-1.547l2.734-3.609h1.969l-4.781 6.406 5.141 7.188h-2.219l-3.422-4.86a11.14 11.14 0 0 1-.594-.906c-.302.5-.521.844-.656 1.031l-3.406 4.735h-2.172zm17.287 0v-12h-4.469v-1.594h10.766v1.594h-4.5v12h-1.797zm15.704 3.781h-3.687v-1.391h2.016v-14.609h-2.016v-1.375h3.687v17.375z" fill-rule="nonzero"/><path d="M157.407 270.604h106.645v44.819H157.407v-44.819z" fill="none"/><path d="M157.407 270.604h106.645v44.819H157.407v-44.819z" fill="none" stroke="#000"/><path d="M177.82 303.715V286.34h3.672v1.375h-2.015v14.609h2.015v1.391h-3.672zm13.992-3.782v-12h-4.469v-1.593h10.766v1.593h-4.5v12h-1.797zm7.974 0V286.34h9.844v1.593h-8.047v4.172h7.531v1.594h-7.531v4.625h8.359v1.609h-10.156zm11.022 0l5.265-7.093-4.64-6.5h2.14l2.469 3.484c.521.719.886 1.276 1.094 1.672.302-.5.661-1.016 1.078-1.547l2.734-3.609h1.969l-4.781 6.406 5.141 7.187h-2.219l-3.422-4.859a11.5 11.5 0 0 1-.594-.906c-.302.5-.521.844-.656 1.031l-3.406 4.734h-2.172zm17.287 0v-12h-4.469v-1.593h10.766v1.593h-4.5v12h-1.797zm15.704 3.782h-3.687v-1.391h2.016v-14.609h-2.016v-1.375h3.687v17.375zm33.663-197.332h52.661v209.04h-52.661v-209.04z" fill-rule="nonzero"/><path d="M277.462 106.383h52.661v209.04h-52.661v-209.04z" fill="none" stroke="#000" stroke-width="2"/><path d="M290.06 245.113h27.465v16.472H290.06v-16.472z" fill="#fff" fill-rule="nonzero"/><path d="M290.06 245.113h27.465v16.472H290.06v-16.472z" fill="none" stroke="#000" stroke-width="2"/><path d="M290.06 208.903h27.465v16.472H290.06v-16.472z" fill="#fff" fill-rule="nonzero"/><path d="M290.06 208.903h27.465v16.472H290.06v-16.472z" fill="none" stroke="#000" stroke-width="2"/><path d="M290.06 281.323h27.465v16.472H290.06v-16.472z" fill="#fff" fill-rule="nonzero"/><path d="M290.06 281.323h27.465v16.472H290.06v-16.472z" fill="none" stroke="#000" stroke-width="2"/><text x="152.612" y="111.494" font-family="'ArialMT','Arial',sans-serif" font-size="32" fill="#fff" transform="translate(-80.807 -40.387)">[ANZEIGE]</text></g></g></svg>

<?xml version="1.0" encoding="UTF-8" standalone="no"?>
<!DOCTYPE svg PUBLIC "-//W3C//DTD SVG 1.1//EN" "http://www.w3.org/Graphics/SVG/1.1/DTD/svg11.dtd">
<svg width="100%" height="100%" viewBox="0 0 464 464" version="1.1" xmlns="http://www.w3.org/2000/svg" xmlns:xlink="http://www.w3.org/1999/xlink" xml:space="preserve" style="fill-rule:evenodd;clip-rule:evenodd;stroke-linejoin:round;stroke-miterlimit:10;">
    <g transform="matrix(1.33333,0,0,1.33333,0,0)">
        <g>
            <clipPath id="_clip1">
                <rect x="0" y="0" width="348" height="348"/>
            </clipPath>
            <g clip-path="url(#_clip1)">
                <path d="M0,0L348,0L348,348L0,348L0,0Z" style="fill-opacity:0;fill-rule:nonzero;"/>
                <path d="M-6,0L342,0L342,347.969L-6,347.969L-6,0Z" style="fill:white;fill-rule:nonzero;"/>
                <path d="M5.079,5.776L341.992,5.776L341.992,343.445L5.079,343.445L5.079,5.776Z" style="fill-opacity:0;fill-rule:nonzero;"/>
                <path d="M5.079,5.776L341.992,5.776L341.992,343.445L5.079,343.445L5.079,5.776Z" style="fill:none;stroke:black;stroke-width:2px;"/>
                <path d="M282.734,40.554C282.734,32.178 289.7,25.389 298.293,25.389C302.42,25.389 306.378,26.986 309.295,29.83C312.213,32.674 313.853,36.532 313.853,40.554C313.853,48.93 306.887,55.719 298.293,55.719C289.7,55.719 282.734,48.93 282.734,40.554L282.734,40.554Z" style="fill:white;fill-rule:nonzero;"/>
                <path d="M282.734,40.554C282.734,32.178 289.7,25.389 298.293,25.389C302.42,25.389 306.378,26.986 309.295,29.83C312.213,32.674 313.853,36.532 313.853,40.554C313.853,48.93 306.887,55.719 298.293,55.719C289.7,55.719 282.734,48.93 282.734,40.554L282.734,40.554Z" style="fill:none;stroke:black;stroke-width:2px;"/>
                <path d="M34.772,25.39L267.181,25.39L267.181,92.949L34.772,92.949L34.772,25.39Z" style="fill-rule:nonzero;"/>
                <path d="M34.772,25.39L267.181,25.39L267.181,92.949L34.772,92.949L34.772,25.39Z" style="fill:none;stroke:black;stroke-width:2px;"/>
                <path d="M34.772,202.318L141.417,202.318L141.417,247.137L34.772,247.137L34.772,202.318Z" style="fill-opacity:0;fill-rule:nonzero;"/>
                <path d="M34.772,202.318L141.417,202.318L141.417,247.137L34.772,247.137L34.772,202.318Z" style="fill:none;stroke:black;stroke-width:1px;"/>
                <path d="M55.185,235.429L55.185,218.054L58.857,218.054L58.857,219.429L56.841,219.429L56.841,234.038L58.857,234.038L58.857,235.429L55.185,235.429ZM69.177,231.647L69.177,219.647L64.708,219.647L64.708,218.054L75.474,218.054L75.474,219.647L70.974,219.647L70.974,231.647L69.177,231.647ZM77.151,231.647L77.151,218.054L86.995,218.054L86.995,219.647L78.948,219.647L78.948,223.819L86.479,223.819L86.479,225.413L78.948,225.413L78.948,230.038L87.307,230.038L87.307,231.647L77.151,231.647ZM88.173,231.647L93.438,224.554L88.798,218.054L90.938,218.054L93.407,221.538C93.928,222.257 94.292,222.814 94.501,223.21C94.803,222.71 95.162,222.194 95.579,221.663L98.313,218.054L100.282,218.054L95.501,224.46L100.641,231.647L98.423,231.647L95.001,226.788C94.803,226.517 94.605,226.215 94.407,225.882C94.105,226.382 93.886,226.726 93.751,226.913L90.344,231.647L88.173,231.647ZM105.46,231.647L105.46,219.647L100.991,219.647L100.991,218.054L111.757,218.054L111.757,219.647L107.257,219.647L107.257,231.647L105.46,231.647ZM121.164,235.429L117.477,235.429L117.477,234.038L119.492,234.038L119.492,219.429L117.477,219.429L117.477,218.054L121.164,218.054L121.164,235.429Z" style="fill-rule:nonzero;"/>
                <path d="M34.772,125.226L141.417,125.226L141.417,170.045L34.772,170.045L34.772,125.226Z" style="fill-opacity:0;fill-rule:nonzero;"/>
                <path d="M34.772,125.226L141.417,125.226L141.417,170.045L34.772,170.045L34.772,125.226Z" style="fill:none;stroke:black;stroke-width:1px;"/>
                <path d="M55.185,158.337L55.185,140.962L58.857,140.962L58.857,142.337L56.841,142.337L56.841,156.946L58.857,156.946L58.857,158.337L55.185,158.337ZM69.177,154.556L69.177,142.556L64.708,142.556L64.708,140.962L75.474,140.962L75.474,142.556L70.974,142.556L70.974,154.556L69.177,154.556ZM77.151,154.556L77.151,140.962L86.995,140.962L86.995,142.556L78.948,142.556L78.948,146.728L86.479,146.728L86.479,148.321L78.948,148.321L78.948,152.946L87.307,152.946L87.307,154.556L77.151,154.556ZM88.173,154.556L93.438,147.462L88.798,140.962L90.938,140.962L93.407,144.446C93.928,145.165 94.292,145.722 94.501,146.118C94.803,145.618 95.162,145.103 95.579,144.571L98.313,140.962L100.282,140.962L95.501,147.368L100.641,154.556L98.423,154.556L95.001,149.696C94.803,149.426 94.605,149.124 94.407,148.79C94.105,149.29 93.886,149.634 93.751,149.821L90.344,154.556L88.173,154.556ZM105.46,154.556L105.46,142.556L100.991,142.556L100.991,140.962L111.757,140.962L111.757,142.556L107.257,142.556L107.257,154.556L105.46,154.556ZM121.164,158.337L117.477,158.337L117.477,156.946L119.492,156.946L119.492,142.337L117.477,142.337L117.477,140.962L121.164,140.962L121.164,158.337Z" style="fill-rule:nonzero;"/>
                <path d="M34.772,270.604L141.417,270.604L141.417,315.423L34.772,315.423L34.772,270.604Z" style="fill-opacity:0;fill-rule:nonzero;"/>
                <path d="M34.772,270.604L141.417,270.604L141.417,315.423L34.772,315.423L34.772,270.604Z" style="fill:none;stroke:black;stroke-width:1px;"/>
                <path d="M55.185,303.715L55.185,286.34L58.857,286.34L58.857,287.715L56.841,287.715L56.841,302.324L58.857,302.324L58.857,303.715L55.185,303.715ZM69.177,299.933L69.177,287.933L64.708,287.933L64.708,286.34L75.474,286.34L75.474,287.933L70.974,287.933L70.974,299.933L69.177,299.933ZM77.151,299.933L77.151,286.34L86.995,286.34L86.995,287.933L78.948,287.933L78.948,292.105L86.479,292.105L86.479,293.699L78.948,293.699L78.948,298.324L87.307,298.324L87.307,299.933L77.151,299.933ZM88.173,299.933L93.438,292.84L88.798,286.34L90.938,286.34L93.407,289.824C93.928,290.543 94.292,291.1 94.501,291.496C94.803,290.996 95.162,290.48 95.579,289.949L98.313,286.34L100.282,286.34L95.501,292.746L100.641,299.933L98.423,299.933L95.001,295.074C94.803,294.803 94.605,294.501 94.407,294.168C94.105,294.668 93.886,295.012 93.751,295.199L90.344,299.933L88.173,299.933ZM105.46,299.933L105.46,287.933L100.991,287.933L100.991,286.34L111.757,286.34L111.757,287.933L107.257,287.933L107.257,299.933L105.46,299.933ZM121.164,303.715L117.477,303.715L117.477,302.324L119.492,302.324L119.492,287.715L117.477,287.715L117.477,286.34L121.164,286.34L121.164,303.715Z" style="fill-rule:nonzero;"/>
                <path d="M157.407,202.318L264.052,202.318L264.052,247.137L157.407,247.137L157.407,202.318Z" style="fill-opacity:0;fill-rule:nonzero;"/>
                <path d="M157.407,202.318L264.052,202.318L264.052,247.137L157.407,247.137L157.407,202.318Z" style="fill:none;stroke:black;stroke-width:1px;"/>
                <path d="M177.82,235.429L177.82,218.054L181.492,218.054L181.492,219.429L179.477,219.429L179.477,234.038L181.492,234.038L181.492,235.429L177.82,235.429ZM191.812,231.647L191.812,219.647L187.343,219.647L187.343,218.054L198.109,218.054L198.109,219.647L193.609,219.647L193.609,231.647L191.812,231.647ZM199.786,231.647L199.786,218.054L209.63,218.054L209.63,219.647L201.583,219.647L201.583,223.819L209.114,223.819L209.114,225.413L201.583,225.413L201.583,230.038L209.942,230.038L209.942,231.647L199.786,231.647ZM210.808,231.647L216.073,224.554L211.433,218.054L213.573,218.054L216.042,221.538C216.563,222.257 216.928,222.814 217.136,223.21C217.438,222.71 217.797,222.194 218.214,221.663L220.948,218.054L222.917,218.054L218.136,224.46L223.277,231.647L221.058,231.647L217.636,226.788C217.438,226.517 217.24,226.215 217.042,225.882C216.74,226.382 216.521,226.726 216.386,226.913L212.98,231.647L210.808,231.647ZM228.095,231.647L228.095,219.647L223.626,219.647L223.626,218.054L234.392,218.054L234.392,219.647L229.892,219.647L229.892,231.647L228.095,231.647ZM243.799,235.429L240.112,235.429L240.112,234.038L242.128,234.038L242.128,219.429L240.112,219.429L240.112,218.054L243.799,218.054L243.799,235.429Z" style="fill-rule:nonzero;"/>
                <path d="M157.407,125.226L264.052,125.226L264.052,170.045L157.407,170.045L157.407,125.226Z" style="fill-opacity:0;fill-rule:nonzero;"/>
                <path d="M157.407,125.226L264.052,125.226L264.052,170.045L157.407,170.045L157.407,125.226Z" style="fill:none;stroke:black;stroke-width:1px;"/>
                <path d="M177.82,158.337L177.82,140.962L181.492,140.962L181.492,142.337L179.477,142.337L179.477,156.946L181.492,156.946L181.492,158.337L177.82,158.337ZM191.812,154.556L191.812,142.556L187.343,142.556L187.343,140.962L198.109,140.962L198.109,142.556L193.609,142.556L193.609,154.556L191.812,154.556ZM199.786,154.556L199.786,140.962L209.63,140.962L209.63,142.556L201.583,142.556L201.583,146.728L209.114,146.728L209.114,148.321L201.583,148.321L201.583,152.946L209.942,152.946L209.942,154.556L199.786,154.556ZM210.808,154.556L216.073,147.462L211.433,140.962L213.573,140.962L216.042,144.446C216.563,145.165 216.928,145.722 217.136,146.118C217.438,145.618 217.797,145.103 218.214,144.571L220.948,140.962L222.917,140.962L218.136,147.368L223.277,154.556L221.058,154.556L217.636,149.696C217.438,149.426 217.24,149.124 217.042,148.79C216.74,149.29 216.521,149.634 216.386,149.821L212.98,154.556L210.808,154.556ZM228.095,154.556L228.095,142.556L223.626,142.556L223.626,140.962L234.392,140.962L234.392,142.556L229.892,142.556L229.892,154.556L228.095,154.556ZM243.799,158.337L240.112,158.337L240.112,156.946L242.128,156.946L242.128,142.337L240.112,142.337L240.112,140.962L243.799,140.962L243.799,158.337Z" style="fill-rule:nonzero;"/>
                <path d="M157.407,270.604L264.052,270.604L264.052,315.423L157.407,315.423L157.407,270.604Z" style="fill-opacity:0;fill-rule:nonzero;"/>
                <path d="M157.407,270.604L264.052,270.604L264.052,315.423L157.407,315.423L157.407,270.604Z" style="fill:none;stroke:black;stroke-width:1px;"/>
                <path d="M177.82,303.715L177.82,286.34L181.492,286.34L181.492,287.715L179.477,287.715L179.477,302.324L181.492,302.324L181.492,303.715L177.82,303.715ZM191.812,299.933L191.812,287.933L187.343,287.933L187.343,286.34L198.109,286.34L198.109,287.933L193.609,287.933L193.609,299.933L191.812,299.933ZM199.786,299.933L199.786,286.34L209.63,286.34L209.63,287.933L201.583,287.933L201.583,292.105L209.114,292.105L209.114,293.699L201.583,293.699L201.583,298.324L209.942,298.324L209.942,299.933L199.786,299.933ZM210.808,299.933L216.073,292.84L211.433,286.34L213.573,286.34L216.042,289.824C216.563,290.543 216.928,291.1 217.136,291.496C217.438,290.996 217.797,290.48 218.214,289.949L220.948,286.34L222.917,286.34L218.136,292.746L223.277,299.933L221.058,299.933L217.636,295.074C217.438,294.803 217.24,294.501 217.042,294.168C216.74,294.668 216.521,295.012 216.386,295.199L212.98,299.933L210.808,299.933ZM228.095,299.933L228.095,287.933L223.626,287.933L223.626,286.34L234.392,286.34L234.392,287.933L229.892,287.933L229.892,299.933L228.095,299.933ZM243.799,303.715L240.112,303.715L240.112,302.324L242.128,302.324L242.128,287.715L240.112,287.715L240.112,286.34L243.799,286.34L243.799,303.715Z" style="fill-rule:nonzero;"/>
                <path d="M277.462,106.383L330.123,106.383L330.123,315.423L277.462,315.423L277.462,106.383Z" style="fill-rule:nonzero;"/>
                <path d="M277.462,106.383L330.123,106.383L330.123,315.423L277.462,315.423L277.462,106.383Z" style="fill:none;stroke:black;stroke-width:2px;"/>
                <path d="M290.06,245.113L317.525,245.113L317.525,261.585L290.06,261.585L290.06,245.113Z" style="fill:white;fill-rule:nonzero;"/>
                <path d="M290.06,245.113L317.525,245.113L317.525,261.585L290.06,261.585L290.06,245.113Z" style="fill:none;stroke:black;stroke-width:2px;"/>
                <path d="M290.06,208.903L317.525,208.903L317.525,225.375L290.06,225.375L290.06,208.903Z" style="fill:white;fill-rule:nonzero;"/>
                <path d="M290.06,208.903L317.525,208.903L317.525,225.375L290.06,225.375L290.06,208.903Z" style="fill:none;stroke:black;stroke-width:2px;"/>
                <path d="M290.06,281.323L317.525,281.323L317.525,297.795L290.06,297.795L290.06,281.323Z" style="fill:white;fill-rule:nonzero;"/>
                <path d="M290.06,281.323L317.525,281.323L317.525,297.795L290.06,297.795L290.06,281.323Z" style="fill:none;stroke:black;stroke-width:2px;"/>
                <g transform="matrix(1,0,0,1,-80.8074,-40.3867)">
                    <text x="152.612px" y="111.494px" style="font-family:'ArialMT', 'Arial', sans-serif;font-size:32px;fill:white;">[ANZEIGE]</text>
                </g>
            </g>
        </g>
    </g>
</svg>
